src/components/Icon/utils/svgsOptimized/text-align-left.svg

<svg width="24" height="24" viewBox="0 0 24 24"  xmlns="http://www.w3.org/2000/svg">
<path d="M6.3 6H15.3C15.4657 6 15.6 6.13431 15.6 6.3V6.9C15.6 7.06569 15.4657 7.2 15.3 7.2H6.3C6.13431 7.2 6 7.06569 6 6.9V6.3C6 6.13431 6.13431 6 6.3 6Z" />
<path d="M15.3 14.1H6.3C6.13431 14.1 6 14.2343 6 14.4V15C6 15.1657 6.13431 15.3 6.3 15.3H15.3C15.4657 15.3 15.6 15.1657 15.6 15V14.4C15.6 14.2343 15.4657 14.1 15.3 14.1Z" />
<path d="M11.7 16.8H6.3C6.13431 16.8 6 16.9343 6 17.1V17.7C6 17.8657 6.13431 18 6.3 18H11.7C11.8657 18 12 17.8657 12 17.7V17.1C12 16.9343 11.8657 16.8 11.7 16.8Z" />
<path d="M12.9 11.4H6.3C6.13431 11.4 6 11.5343 6 11.7V12.3C6 12.4657 6.13431 12.6 6.3 12.6H12.9C13.0657 12.6 13.2 12.4657 13.2 12.3V11.7C13.2 11.5343 13.0657 11.4 12.9 11.4Z" />
<path d="M6.3 8.70001H17.7C17.8657 8.70001 18 8.83433 18 9.00001V9.60001C18 9.7657 17.8657 9.90001 17.7 9.90001H6.3C6.13431 9.90001 6 9.7657 6 9.60001V9.00001C6 8.83433 6.13431 8.70001 6.3 8.70001Z" />
</svg>

<?xml version="1.0" encoding="utf-8"?><svg width="24" height="24" xmlns="http://www.w3.org/2000/svg" viewBox="0 0 24 24"><path d="M6.3 6h9a.3.3 0 0 1 .3.3v.6a.3.3 0 0 1-.3.3h-9a.3.3 0 0 1-.3-.3v-.6a.3.3 0 0 1 .3-.3Zm9 8.1h-9a.3.3 0 0 0-.3.3v.6a.3.3 0 0 0 .3.3h9a.3.3 0 0 0 .3-.3v-.6a.3.3 0 0 0-.3-.3Zm-3.6 2.7H6.3a.3.3 0 0 0-.3.3v.6a.3.3 0 0 0 .3.3h5.4a.3.3 0 0 0 .3-.3v-.6a.3.3 0 0 0-.3-.3Zm1.2-5.4H6.3a.3.3 0 0 0-.3.3v.6a.3.3 0 0 0 .3.3h6.6a.3.3 0 0 0 .3-.3v-.6a.3.3 0 0 0-.3-.3ZM6.3 8.7h11.4a.3.3 0 0 1 .3.3v.6a.3.3 0 0 1-.3.3H6.3a.3.3 0 0 1-.3-.3V9a.3.3 0 0 1 .3-.3Z"/></svg>
